X:1
T:Title
%%score { ( 1 4 5 ) | ( 2 3 6 ) }
L:1/8
M:4/4
K:Eb
V:1 treble nm="Grand Piano"
V:4 treble 
V:5 treble 
V:2 bass 
V:3 bass 
V:6 bass 
V:1
 z4 z2[Q:1/4=92] G>A | B2 E>F G<G AG | [CF]>[C=E] [CF]>[CA] C2 DC | B,DF[DA] [Ad][Ac] [FA]>[Ac] | %4
[M:9/8] [GB]3- [GB] G2- GG>A |[M:3/4] BB E>F G<G |[M:1/4] AG | %7
[M:39/32] z/4 z/4 z/4 z/4 z/4 z/4 z/4 z/4 z/4 z/4 z/4 z/4 z/4 z/4 z/4 z/4 z/4 z/4 z/4 z/4 z/4 z/4 z/4 z/4 z/4 z/4 z/ d/4-d/4-d/4-d/4-d/4-d/4-d/-<d/ z/4 | %8
[M:4/4] (9:8:7[B,EB]2 [G,B,E]3/2[CA] [EG][EG]/- [EG]2 [DF] |[M:3/4] E6 |[M:1/4] (3:2:2G2 [FG] | %11
[M:4/4] (9:8:8[EG]2 [Ec]2 [Ec]/ =B/-B3/2d/-d3/2d/ | (7:8:7[Ec][Ec]/[Fc]3/2.[Gc]/ [EG]3/2[EG][E_G] | %13
 z4 (5:4:5ce3/2 d/-d3/2c/ |[M:9/8] B6- B-B/4 z/4 z/ z |[M:3/4] [Ge]2- [Ge]/4 z/4 z/ z z2 | %16
[M:1/4] (3:2:2A3/2B3/2 | %17
[M:39/32] c/-<c/ z/4 z/4 z/4 z/4 z/4 z/4 z/4 z/4 z/4 z/4 z/4 z/4 z/4 z/4 z/4 z/4 z/4 z/4 z/4 z/4 z/4 z/4 z/4 z/4 z/4 z/4 z/4 z/4 z/4 z/4 z/ c3/4 | %18
[M:4/4] [B,EB]2 [G,B,E][CA] [EG] [EG]2 [DF] |[M:3/4] E6 |[M:1/4] [GB]>[FA] | %21
[M:4/4] G>_G =G>B E2 A>G | F>=E F>A C2 D>C | B,DF[DA] [Ad][Ac] [FA]>[Ac] | %24
[M:9/8] [GB]3- [GB] G2- GG>A |[M:3/4] BB E>F G<G |[M:1/4] AG | %27
[M:39/32] z/4 z/4 z/4 z/4 z/4 z/4 z/4 z/4 z/4 z/4 z/4 z/4 z/4 z/4 z/4 z/4 z/4 z/4 z/4 z/4 z/4 z/4 z/4 z/4 z/4 z/4 z/ d/4-d/4-d/4-d/4-d/4-d/4-d/-<d/ z/4 | %28
[M:4/4] (9:8:7[B,EB]2 [G,B,E]3/2[CA] [EG][EG]/- [EG]2 [DF] |[M:7/4] E2- E4- E/4 z/4 z/ z z2 z4 |] %30
V:2
 z4 z2 [E,B,E]>[E,F,E] | [E,G,E]2 [E,G,]>[E,A,E] [E,B,E]<[E,B,E] [E,CE][E,B,E] | z4 z2 .F,2 | %3
 [B,,D,A,][B,,F,A,][B,,A,B,][B,,B,] [B,,B,]2 [D,B,]>[D,B,] | %4
[M:9/8] E3- E [B,E]2- [B,E][E,B,E]>[E,F,E] |[M:3/4] EE [E,G,]>[E,A,E] E<E |[M:1/4] [E,CE][E,B,E] | %7
[M:39/32] [A,C]/-<[A,C]/[G,B,C]/-<[G,B,C]/[F,A,C]/-<[F,A,C]/[F,CF]/-<[F,CF]/[F,A,F]/4-[F,A,F]/4-[F,A,F]/4-[F,A,F]/4-[F,A,F]/4-[F,A,F]/4-[F,A,F]/4-[F,A,F]/4-[F,A,F]/-<[F,A,F]/ z/4 z/4 z/4 z/4 z/4 z/4 z/ [_G,,=A,E]3/4 | %8
[M:4/4] (9:8:7G,,2 G,,3/2[A,,F,] [B,,B,][B,,B,]/- [B,,B,]2 [B,,A,] |[M:3/4] [E,G,]6 | %10
[M:1/4] (3:2:2[E,B,E]2 [D,=B,] | %11
[M:4/4] (9:8:8[C,C]2 [C,G,]2 [C,G,]/ [G,D]/-[G,D]3/2[G,,=B,F]/-[G,,B,F]3/2[G,,B,F]/ | %12
 G,2- G,/4 z/4 z/ z z4 | (5:4:5[F,=A,E][F,A,E]3/2 [F,CE]/-[F,CE]3/2[F,DF]/ z4 | %14
[M:9/8] z3 z A,2- A,[B,,A,][B,,A,]- | %15
[M:3/4] [B,,A,]3/4 z/4 z (3:2:2[E,B,]3/2[E,B,]3/2 [E,B,E]<[E,B,E] | %16
[M:1/4] (3:2:2[F,B,D]3/2[G,B,E]3/2 | %17
[M:39/32] z/4 z/4 z/ [A,E]/4-[A,E]/-<[A,E]/ z/4 z/4 z/4 z/4 z/4 z/ [A,F]/4-[A,F]/4-[A,F]/4-[A,F]/4-[A,F]/4-[A,F]/4-[A,F]/4-[A,F]/4-[A,F]/-<[A,F]/ z/4 z/4 z/4 z/4 z/4 z/4 z/4 z/4 z/4 z/ | %18
[M:4/4] G,,2 G,,[A,,F,] [B,,B,] [B,,B,]2 [B,,A,] |[M:3/4] [E,G,]6 |[M:1/4] [E,E]>[E,E] | %21
[M:4/4] [E,B,E]>[E,=A,E] [E,B,E]>[E,G,E] [E,G,]2 [F,B,D]>[G,B,E] | %22
 [A,C]>[G,B,C] [F,A,C]>[F,C] [A,,F,A,]2 [A,,F,A,]>[A,,E,A,] | %23
 [B,,D,A,][B,,F,A,][B,,A,B,][B,,B,] [B,,B,]2 [D,B,]>[D,B,] |[M:9/8] .E6 z3 |[M:3/4] .E2 z2 .E2 | %26
[M:1/4] [E,CE][E,B,E] | %27
[M:39/32] [A,C]/-<[A,C]/[G,B,C]/-<[G,B,C]/[F,A,C]/-<[F,A,C]/[F,CF]/-<[F,CF]/[F,A,F]/4-[F,A,F]/4-[F,A,F]/4-[F,A,F]/4-[F,A,F]/4-[F,A,F]/4-[F,A,F]/4-[F,A,F]/4-[F,A,F]/-<[F,A,F]/ z/4 z/4 z/4 z/4 z/4 z/4 z/ [_G,,=A,E]3/4 | %28
[M:4/4] (9:8:7G,,2 G,,3/2[A,,F,] [B,,B,][B,,B,]/- [B,,B,]2 [B,,A,] | %29
[M:7/4] [E,G,]2- [E,G,]4- [E,G,]/4 z/4 z/ z z2 z4 |] %30
V:3
 x8 | x8 | [A,,A,]>[A,,A,] [A,,A,]>[A,,A,] [A,,F,A,]2 [A,,A,]-[A,,E,A,] | x8 | %4
[M:9/8] E,6- E,/ z/ z z |[M:3/4] [E,G,]2 z2 [E,B,]2 |[M:1/4] x2 | %7
[M:39/32] z/4 z/4 z/4 z/4 z/4 z/4 z/4 z/4 z/4 z/4 z/4 z/4 z/4 z/4 z/4 z/4 z/4 z/4 z/4 z/4 z/4 z/4 z/4 z/4 z/4 z/4 z/ [F,,A,F]/4-[F,,A,F]/4-[F,,A,F]/4-[F,,A,F]/4-[F,,A,F]/4-[F,,A,F]/4-[F,,A,F]/-<[F,,A,F]/ z/4 | %8
[M:4/4] x8 |[M:3/4] x6 |[M:1/4] x2 |[M:4/4] x481/60 | %12
 (7:8:6C,3/2[D,G,]3/2.[E,G,]/ [C,G,]3/2[C,C][C,C] | %13
 z4 (5:4:5[F,-EF-][F,CF]3/2 [F,=A,F]/-[F,A,F]3/2[F,A,F]/ |[M:9/8] z2 G,- G,-G,/4 z/4 z/ z z3 | %15
[M:3/4] x6 |[M:1/4] x2 | %17
[M:39/32] [A,E]/-<[A,E]/ z/4 z/4 z/ [CF]/-<[CF]/-[F,-A,-CF]/<[F,A,]/F,/4-F,/4-F,/4-F,/4-F,/4-F,/4-F,/4-F,/4-F,/4-F,/-<F,/ z/4 z/4 z/4 z/4 z/4 z/ [_G,,=A,E]3/4 | %18
[M:4/4] x8 |[M:3/4] x6 |[M:1/4] x2 |[M:4/4] x8 | x8 | x8 | %24
[M:9/8] E,3- E,- [E,B,E]2- [E,B,-E-]/[B,E]<[E,B,E][E,F,E]/ | %25
[M:3/4] [E,G,]-[E,G,E] [E,G,]>[E,A,E] [E,B,]-<[E,B,E] |[M:1/4] x2 | %27
[M:39/32] z/4 z/4 z/4 z/4 z/4 z/4 z/4 z/4 z/4 z/4 z/4 z/4 z/4 z/4 z/4 z/4 z/4 z/4 z/4 z/4 z/4 z/4 z/4 z/4 z/4 z/4 z/ [F,,A,F]/4-[F,,A,F]/4-[F,,A,F]/4-[F,,A,F]/4-[F,,A,F]/4-[F,,A,F]/4-[F,,A,F]/-<[F,,A,F]/ z/4 | %28
[M:4/4] x8 |[M:7/4] x14 |] %30
V:4
 x8 | x8 | x8 | x8 |[M:9/8] x9 |[M:3/4] x6 |[M:1/4] x2 | %7
[M:39/32] F/-<F/=E/-<E/F/-<F/A/-<A/c/4-c/4-c/4-c/4-c/4-c/4-c/4-c/4-c/-<c/ z/4 z/4 z/4 z/4 z/4 z/4 z/ c3/4 | %8
[M:4/4] x8 |[M:3/4] x6 |[M:1/4] x2 |[M:4/4] x481/60 | x8 | (5:4:5FF3/2 =A/-A3/2B/ z4 | %14
[M:9/8] [B,D]2- [B,D]/4 z/4 z/ z F2- Fc-[F-cd-]/<[Fd]/- | %15
[M:3/4] [Fd]3/4 z/4 z (3:2:2[Gd]3/2[Gc]3/2 G<G |[M:1/4] x2 | %17
[M:39/32] z/4 z/4 z/ c/4-c/-<c/ z/4 z/ F/4-F/-<F/ z/4 z/4 z/4 z/4 z/4 z/4 z/4 z/4 z/4 z/ d/4-d/4-d/4-d/4-d/4-d/-<d/ z/ | %18
[M:4/4] x8 |[M:3/4] x6 |[M:1/4] x2 |[M:4/4] x8 | x8 | x8 |[M:9/8] x9 |[M:3/4] x6 |[M:1/4] x2 | %27
[M:39/32] F/-<F/=E/-<E/F/-<F/A/-<A/c/4-c/4-c/4-c/4-c/4-c/4-c/4-c/4-c/-<c/ z/4 z/4 z/4 z/4 z/4 z/4 z/ c3/4 | %28
[M:4/4] x8 |[M:7/4] x14 |] %30
V:5
 x8 | x8 | x8 | x8 |[M:9/8] x9 |[M:3/4] x6 |[M:1/4] x2 |[M:39/32] x39/4 |[M:4/4] x8 |[M:3/4] x6 | %10
[M:1/4] x2 |[M:4/4] x481/60 | x8 | x8 |[M:9/8] z2 E- E-E/4 z/4 z/ z z .F2 |[M:3/4] x6 |[M:1/4] x2 | %17
[M:39/32] z/4 z/4 z/4 z/4 z/4 z/4 z/ A/4-A/-<A/ z/4 z/ c/4-c/4-c/4-c/4-c/4-c/4-c/4-c/4-c/4-c/-<c/ z/4 z/4 z/4 z/4 z/4 z/4 z/4 z/4 z/ | %18
[M:4/4] x8 |[M:3/4] x6 |[M:1/4] x2 |[M:4/4] x8 | x8 | x8 |[M:9/8] x9 |[M:3/4] x6 |[M:1/4] x2 | %27
[M:39/32] x39/4 |[M:4/4] x8 |[M:7/4] x14 |] %30
V:6
 x8 | x8 | x8 | x8 |[M:9/8] x9 |[M:3/4] x6 |[M:1/4] x2 |[M:39/32] x39/4 |[M:4/4] x8 |[M:3/4] x6 | %10
[M:1/4] x2 |[M:4/4] x481/60 | x8 | x8 |[M:9/8] B,,6- B,, z z | %15
[M:3/4] [E,B,]2- [E,B,]/4 z/4 z/ z z2 |[M:1/4] x2 | %17
[M:39/32] z/4 z/4 z/4 z/4 z/4 z/4 z/ F,/-<F,/ z/4 z/4 z/4 z/4 z/4 z/4 z/4 z/4 z/4 z/4 z/4 z/4 z/4 z/4 z/ [F,,A,F]/4-[F,,A,F]/4-[F,,A,F]/4-[F,,A,F]/4-[F,,A,F]/4-[F,,A,F]/-<[F,,A,F]/ z/ | %18
[M:4/4] x8 |[M:3/4] x6 |[M:1/4] x2 |[M:4/4] x8 | x8 | x8 |[M:9/8] x9 |[M:3/4] x6 |[M:1/4] x2 | %27
[M:39/32] x39/4 |[M:4/4] x8 |[M:7/4] x14 |] %30

